!!!COM:	Bach, Johann Sebastian
!!!CDT:	1685/02/21/-1750/07/28/
!!!OTL@@DE:	Mit Fried und Freud ich fahr dahin
!!!SCT:	BWV 382
!!!PC#:	49
!!!AGN:	chorale
**kern	**kern	**kern	**kern
*ICvox	*ICvox	*ICvox	*ICvox
*Ibass	*Itenor	*Ialto	*Isoprn
*I"Bass	*I"Tenor	*I"Alto	*I"Soprano
*clefF4	*clefGv2	*clefG2	*clefG2
*k[]	*k[]	*k[]	*k[]
*d:dor	*d:dor	*d:dor	*d:dor
*M4/4	*M4/4	*M4/4	*M4/4
*met(c)	*met(c)	*met(c)	*met(c)
*MM100	*MM100	*MM100	*MM100
8DL	8FL	4A	4d
8EJ	8GJ	.	.
=1	=1	=1	=1
8FL	4A	4d	4a
8EJ	.	.	.
8FL	8dL	4f	4a
8DJ	8cJ	.	.
8EL	4B	4e	4g
8DJ	.	.	.
8CL	8AL	8f#L	4dd
8BBJ	8BJ	8g#J	.
=2	=2	=2	=2
8AAL	8cL	4.a	4cc
8CJ	16dL	.	.
.	16eJJ	.	.
8DL	8fnXL	.	4b
8EJ	8eJ	8g#	.
4AA;	4c;	4e;	4a;
4A	4e	[4a	4cc
=3	=3	=3	=3
8DL	8fL	8aL]	4b
8EJ	16eL	8g#J	.
.	16dJJ	.	.
8FL	16cLL	8aL	4a
.	16BJ	.	.
8EJ	[8AJ	8cJ	.
8DL	8AL]	4f	2b
8BBJ	16dL	.	.
.	16BJJ	.	.
4E	4G#	8eL	.
.	.	8dJ	.
=4	=4	=4	=4
2.AA;	2.A;	2.c;	2.a;
8GnXL	4d	4gnX	4b
8FJ	.	.	.
=5	=5	=5	=5
8EL	4e	4g	4cc
8FJ	.	.	.
8GL	4d	4g	4b
8FJ	.	.	.
8EL	4.c	4g	4cc
8CJ	.	.	.
8FL	.	4f	4a
8DJ	8d	.	.
=6	=6	=6	=6
8B-L	8c#L	8eL	8gL
8GJ	8dJ	8dJ	8fJ
4A	8AL	4c#	4e
.	8GJ	.	.
4D;	4F;	4A;	4d;
8C#XL	4A	8eL	[4a
8BBJ	.	8dJ	.
=7	=7	=7	=7
8C#L	8GL	8eL	4a]
8AA	[8FJ	8c#J	.
8BB	8FL]	8dL	4g
8C#J	8EJ	8eJ	.
8DL	2F	4A	8fL
8C	.	.	8eJ
8D	.	4B-	4d
8EJ	.	.	.
=8	=8	=8	=8
2F;	2F;	2A;	2c;
4C#	4A	4e	4a
4D	4A	4d	4f
=9	=9	=9	=9
4E	4G	8c	4cc
.	.	4g	.
4F	8cL	.	4a
.	8dJ	8f	.
8GL	8eL	8eL	8gL
8AJ	8fJ	8dJ	8fJ
4B-	8eL	8c#L	4g
.	8dJ	8dJ	.
=10	=10	=10	=10
4A;	4c#;	4e;	4a;
4C#X	4A	4e	4g
4D	8AL	8dL	8fL
.	8GJ	8cnXJ	8eJ
4GG#	4F	4BnX	4d
=11	=11	=11	=11
4.AA	4E	8AL	4c
.	.	8BJ	.
.	2.A	8c#L	4f
8BB	.	8dJ	.
8C#L	.	8eL	8eL
8DJ	.	8fJ	8dJ
4AA	.	[4g	4c#
=12	=12	=12	=12
1D;	4B-	4g]	1d;
.	8AL	8f#L	.
.	8GJ	8eJ	.
.	2A;	2f#;	.
==	==	==	==
*-	*-	*-	*-
!!!hum2abc: -Q ''
!!!title: @{PC#}. @{OTL@@DE}
!!!YOR1: 371 vierstimmige Choralges&auml;nge von Johann Sebastian Bach, 
!!!YOR2: 4th ed. by Alfred D&ouml;rffel (Leipzig: Breitkopf und H&auml;rtel, 
!!!YOR2: c.1875). 178 pp. Plate "V.A.10".  reprint: J.S. Bach, 371 Four-Part 
!!!YOR4: Chorales (New York: Associated Music Publishers, Inc., c.1940).
!!!SMS: B&H, 4th ed, Alfred D&ouml;rffel, c.1875, plate V.A.10
!!!EED:  Craig Stuart Sapp
!!!EEV:  2009/05/22
